src/topics/icons/html5-boilerplate.svg

<svg height="256" preserveAspectRatio="xMidYMid" viewBox="0 0 256 256" width="256" xmlns="http://www.w3.org/2000/svg"><path d="m0 0h256v256h-256z" fill="#222"/><path d="m114.4064 35.2768-22.5792 64.54272-68.494336.18944 55.510016 41.02144-19.94752 66.23232 56.07424-39.70048 57.58464 42.14784-21.07904-68.86912 54.94784-41.02144-68.30592.18944z" fill="#e08524"/><path d="m117.22752 34.335744 22.76864 10.725888 19.004928 51.93728h-18.817024l-22.956544-62.65856" fill="#466770"/><path d="m156.3392 142.23872 22.486528 11.04384 54.42048-39.517696-22.486528-11.975168z" fill="#304a51"/><path d="m156.30848 142.19776 22.517248 11.035648 21.28896 68.8384-23.284736-11.842048-20.521472-68.02944" fill="#466770"/><path d="m62.09536 209.61792 52.87424-37.821952 18.534912 13.736448-49.958912 34.999808-21.451264-10.913792" fill="#304a51"/></svg>

<?xml version="1.0" encoding="UTF-8" standalone="no"?>
<svg width="256px" height="256px" viewBox="0 0 256 256" version="1.1" xmlns="http://www.w3.org/2000/svg" xmlns:xlink="http://www.w3.org/1999/xlink" preserveAspectRatio="xMidYMid">
	<g>
		<rect fill="#222222" x="0" y="0" width="256" height="256"></rect>
		<path d="M114.4064,35.2768 L91.8272,99.81952 L23.332864,100.00896 L78.84288,141.0304 L58.89536,207.26272 L114.9696,167.56224 L172.55424,209.71008 L151.4752,140.84096 L206.42304,99.81952 L138.11712,100.00896 L114.4064,35.2768" fill="#E08524"></path>
		<path d="M117.22752,34.335744 L139.99616,45.061632 L159.001088,96.998912 L140.184064,96.998912 L117.22752,34.340352" fill="#466770"></path>
		<path d="M156.3392,142.23872 L178.825728,153.28256 L233.246208,113.764864 L210.75968,101.789696 L156.3392,142.23872" fill="#304A51"></path>
		<path d="M156.30848,142.19776 L178.825728,153.233408 L200.114688,222.071808 L176.829952,210.22976 L156.30848,142.20032" fill="#466770"></path>
		<path d="M62.09536,209.61792 L114.9696,171.795968 L133.504512,185.532416 L83.5456,220.532224 L62.094336,209.618432" fill="#304A51"></path>
	</g>
</svg>
